X:7
T:Anon055
O:May 2006
M:4/4
L:1/4
R:March
K:D
d | d A B G | A F G E | F A B d | c A-A A |\
 B G-G G | A F-F F | G>F E D | A3 |]
